images/quote_icon.svg

<svg xmlns="http://www.w3.org/2000/svg" width="42" height="34" fill="none"  xmlns:v="https://vecta.io/nano"><path d="M13.704 16.032c1.6.704 2.848 1.76 3.744 3.168s1.344 3.072 1.344 4.992c0 2.752-.864 4.992-2.592 6.72-1.728 1.664-3.936 2.496-6.624 2.496s-4.928-.864-6.72-2.592C1.128 29.088.264 26.88.264 24.192a15.78 15.78 0 0 1 .48-3.84c.32-1.28 1.024-3.2 2.112-5.76L8.424.768h9.504l-4.224 15.264zm22.656 0c1.6.704 2.848 1.76 3.744 3.168s1.344 3.072 1.344 4.992c0 2.752-.864 4.992-2.592 6.72-1.728 1.664-3.936 2.496-6.624 2.496s-4.928-.864-6.72-2.592c-1.728-1.728-2.592-3.936-2.592-6.624a15.78 15.78 0 0 1 .48-3.84c.32-1.28 1.024-3.2 2.112-5.76L31.08.768h9.504L36.36 16.032z" fill="#fff"/></svg>

<svg width="42" height="34" viewBox="0 0 42 34" fill="none" xmlns="http://www.w3.org/2000/svg">
<path d="M13.704 16.032C15.304 16.736 16.552 17.792 17.448 19.2C18.344 20.608 18.792 22.272 18.792 24.192C18.792 26.944 17.928 29.184 16.2 30.912C14.472 32.576 12.264 33.408 9.576 33.408C6.888 33.408 4.648 32.544 2.856 30.816C1.128 29.088 0.264 26.88 0.264 24.192C0.264 22.912 0.424 21.632 0.744 20.352C1.064 19.072 1.768 17.152 2.856 14.592L8.424 0.767996H17.928L13.704 16.032ZM36.36 16.032C37.96 16.736 39.208 17.792 40.104 19.2C41 20.608 41.448 22.272 41.448 24.192C41.448 26.944 40.584 29.184 38.856 30.912C37.128 32.576 34.92 33.408 32.232 33.408C29.544 33.408 27.304 32.544 25.512 30.816C23.784 29.088 22.92 26.88 22.92 24.192C22.92 22.912 23.08 21.632 23.4 20.352C23.72 19.072 24.424 17.152 25.512 14.592L31.08 0.767996H40.584L36.36 16.032Z" fill="white"/>
</svg>
